!!!COM: Bach, Johann Sebastian (disputed)
!!!OTL: Fuga
!!!OMV: 2
!!!SCT: BWV 560
!!!SCA: Thematisches-systematisches Verzeichnis der musikalischen Werke von Johann Sebastian Bach (Schmieder 1990)
**kern	**kern	**kern	**kern
*MM60	*MM60	*MM60	*MM60
*k[b-e-]	*k[b-e-]	*k[b-e-]	*k[b-e-]
*M3/4	*M3/4	*M3/4	*M3/4
*tb32	*tb32	*tb32	*tb32
4r	4r	4r	4f
=1	=1	=1	=1
2.r	2.r	2.r	8b-
.	.	.	16a
.	.	.	16b-
.	.	.	4.g
.	.	.	8cc
=2	=2	=2	=2
2.r	2.r	2.r	8a
.	.	.	16g
.	.	.	16a
.	.	.	4.f
.	.	.	8b-
=3	=3	=3	=3
2.r	2.r	2.r	8e-
.	.	.	8b-
.	.	.	8e-
.	.	.	8b-
.	.	.	8e-
.	.	.	8b-
=4	=4	=4	=4
2.r	2.r	2.r	8d
.	.	.	8b-
.	.	.	8d
.	.	.	8b-
.	.	.	8d
.	.	.	8b-
=5	=5	=5	=5
2.r	2.r	2.r	8c
.	.	.	16d
.	.	.	16e-
.	.	.	8f
.	.	.	8e-
.	.	.	8d
.	.	.	8c
=6	=6	=6	=6
2.r	2.r	4r	8d
.	.	.	8f
.	.	4r	8g
.	.	.	8a
.	.	4B-	8b-
.	.	.	8cc
=7	=7	=7	=7
2.r	2.r	8f	4a
.	.	16e-	.
.	.	16f	.
.	.	4d	8r
.	.	.	16dd
.	.	.	16cc
.	.	8r	4b-
.	.	8g	.
=8	=8	=8	=8
2.r	2.r	8e-	4cc
.	.	16d	.
.	.	16e-	.
.	.	4c	8r
.	.	.	16cc
.	.	.	16b-
.	.	8r	4a
.	.	8f	.
=9	=9	=9	=9
2.r	2.r	8B-	8b-
.	.	8f	8dd
.	.	8B-	8b-
.	.	8f	8dd
.	.	8B-	8b-
.	.	8f	8dd
=10	=10	=10	=10
2.r	2.r	8A	8cc
.	.	8f	8ff
.	.	8A	8cc
.	.	8f	8ff
.	.	8A	8cc
.	.	8f	[8ff
=11	=11	=11	=11
2.r	2.r	8G	4ff]
.	.	16A	.
.	.	16B-	.
.	.	8c	2ee
.	.	8B-	.
.	.	8A	.
.	.	8G	.
=12	=12	=12	=12
2.r	4r	4A	8ff
.	.	.	16ee-
.	.	.	16dd
.	4r	8r	8cc
.	.	8b-	8dd
.	4F	8cc	8ee-
.	.	8a	8cc
=13	=13	=13	=13
2.r	8B-	4f	8dd
.	16A	.	16cc
.	16B-	.	16dd
.	4.G	8g	8b-
.	.	8f	8a
.	.	4e	4g
.	8c	.	.
=14	=14	=14	=14
2.r	8A	[4f	8cc
.	16G	.	16b-
.	16A	.	16cc
.	4.F	8f]	8a
.	.	8e-	8g
.	.	4d	4f
.	8B-	.	.
=15	=15	=15	=15
2.r	8E-	4e-	4g
.	8B-	.	.
.	8E-	4e-	4g
.	8B-	.	.
.	8E-	4e-	4g
.	8B-	.	.
=16	=16	=16	=16
2.r	8D	8f	4b-
.	8B-	8d	.
.	8D	8f	4b-
.	8B-	8d	.
.	8D	8f	[4b-
.	8B-	8d	.
=17	=17	=17	=17
2.r	8C	[4e-	4b-]
.	16D	.	.
.	16E-	.	.
.	4F	8e-]	4a
.	.	16d	.
.	.	16c	.
.	4A	8f	[4cc
.	.	8e-	.
=18	=18	=18	=18
4r	2B-	4.d	8cc]
.	.	.	16b-
.	.	.	16a
4r	.	.	8b-
.	.	8e-	8cc
4BB-	4B-	[4f	8dd
.	.	.	8ee-
=19	=19	=19	=19
8F	2A	4f]	4cc
16E-	.	.	.
16F	.	.	.
4.D	.	8r	8r
.	.	8f	8dd
.	8r	8e-	8cc
8G	8G	8d	8b
=20	=20	=20	=20
8E-	2G	4e-	4cc
16D	.	.	.
16E-	.	.	.
4.C	.	8r	8r
.	.	8e-	8cc
.	8r	8d	8b-
8F	8F	8c	8a
=21	=21	=21	=21
8BB-	[2.F	4d	4b-
8F	.	.	.
8BB-	.	4d	4b-
8F	.	.	.
8BB-	.	4d	4b-
8F	.	.	.
=22	=22	=22	=22
8AA	2.F]	4f	4cc
8F	.	.	.
8AA	.	4f	4cc
8F	.	.	.
8AA	.	[4f	4cc
8F	.	.	.
=23	=23	=23	=23
2.GG	[2.G	8f]	[2.b-
.	.	16e	.
.	.	16f	.
.	.	8g	.
.	.	8f	.
.	.	8e	.
.	.	8d	.
=24	=24	=24	=24
2.C	2.G]	2.e	8b-]
.	.	.	16a
.	.	.	16b-
.	.	.	8cc
.	.	.	8b-
.	.	.	8a
.	.	.	8g
=25	=25	=25	=25
2FF	2F	8r	2.a
.	.	8c	.
.	.	8f	.
.	.	16g	.
.	.	16f	.
4r	4F	8e-	.
.	.	16f	.
.	.	16e-	.
=26	=26	=26	=26
2.r	8B-	4d	4r
.	16A	.	.
.	16B-	.	.
.	4.G	8r	8r
.	.	8g	8b-
.	.	8f	8a
.	8c	8e	8g
=27	=27	=27	=27
2.r	8A	2f	8cc
.	16G	.	16b-
.	16A	.	16cc
.	8F	.	4a
.	8E-	.	.
.	8D	4f	8b-
.	8C	.	8cc
=28	=28	=28	=28
2.r	4BB-	8b-	4dd
.	.	16a	.
.	.	16b-	.
.	8C	4.g	4.ee-
.	8D	.	.
.	4E-	.	.
.	.	8cc	8ee-
=29	=29	=29	=29
2.r	4F	8a	4cc
.	.	16g	.
.	.	16a	.
.	8BB-	4.f	4.dd
.	8C	.	.
.	4D	.	.
.	.	8b-	8dd
=30	=30	=30	=30
2.r	8E-	4g	8e-
.	8G	.	8b-
.	8E-	4g	8e-
.	8G	.	8b-
.	8E-	4g	8e-
.	8G	.	8b-
=31	=31	=31	=31
2.r	8B-	4f	8d
.	8D	.	8b-
.	8B-	4f	8d
.	8D	.	8b-
.	8B-	4f	8d
.	8D	.	8b-
=32	=32	=32	=32
2.r	4E-	4g	8c
.	.	.	8b-
.	4E-	4g	8c
.	.	.	8b-
.	4E-	4g	8c
.	.	.	8b-
=33	=33	=33	=33
2.r	4F	4f	8c
.	.	.	8a
.	4F	4f	8c
.	.	.	8a
.	4F	4f	8c
.	.	.	[8a
=34	=34	=34	=34
2.r	4.B-	4.d	8a]
.	.	.	16g
.	.	.	16f#
.	.	.	8g
.	8A	8f#	8a
.	4G	[4g	8b-
.	.	.	16cc
.	.	.	16b-
=35	=35	=35	=35
2.r	8c	4.g]	2a
.	16B-	.	.
.	16c	.	.
.	4A	.	.
.	.	8g	.
.	8d	4f#	4aT
.	8c	.	.
=36	=36	=36	=36
2.r	8B-	2d	2g
.	16A	.	.
.	16B-	.	.
.	8G	.	.
.	8A	.	.
.	8B-	4d	4g
.	8G	.	.
=37	=37	=37	=37
2.r	4F#	4A	8dd
.	.	.	16cc
.	.	.	16dd
.	[2G	8G	4.b-
.	.	8d	.
.	.	4g	.
.	.	.	8ee-
=38	=38	=38	=38
4r	4.G]	4e-	8cc
.	.	.	16b-
.	.	.	16cc
4r	.	[2d	4.a
.	8G	.	.
4D	4F#	.	.
.	.	.	8dd
=39	=39	=39	=39
8G	2G	4d]	4b-
16F	.	.	.
16G	.	.	.
4.E-	.	8r	[2cc
.	.	16g	.
.	.	16f	.
.	8r	4e-	.
8A-	8A-	.	.
=40	=40	=40	=40
8F	2A-	4d	4cc]
16E-	.	.	.
16F	.	.	.
4.D	.	8r	2b
.	.	16f	.
.	.	16e-	.
.	8r	4d	.
8G	8G	.	.
=41	=41	=41	=41
8C	[2.G	4e-	4cc
8G	.	.	.
8C	.	4e-	4cc
8G	.	.	.
8C	.	4e-	4cc
8G	.	.	.
=42	=42	=42	=42
8BB-	2.G]	4d	4dd
8G	.	.	.
8BB-	.	4g	4dd
8G	.	.	.
8BB-	.	[4g	4dd
8G	.	.	.
=43	=43	=43	=43
2.AA	[2.A	8g]	[2.cc
.	.	16f#	.
.	.	16g	.
.	.	8a	.
.	.	8g	.
.	.	8f#	.
.	.	8e	.
=44	=44	=44	=44
2.D	2.A]	2.f#	8cc]
.	.	.	16b-
.	.	.	16cc
.	.	.	8dd
.	.	.	8cc
.	.	.	8b-
.	.	.	8a
=45	=45	=45	=45
2GG	2G	8r	2b-
.	.	8d	.
.	.	8e	.
.	.	8f#	.
4GG	4G	8g	4b-
.	.	8dd	.
=46	=46	=46	=46
4AA	2f	4cc	8ff
.	.	.	16ee-
.	.	.	16ff
8BB-	.	8dd	4.dd
8AA	.	8cc	.
4GG	4g	4b-	.
.	.	.	8gg
=47	=47	=47	=47
4.C	4g	4cc	8ee-
.	.	.	16dd
.	.	.	16ee-
.	8e-	4g	4.cc
8BB-	8d	.	.
4AA	4c	4a	.
.	.	.	8ff
=48	=48	=48	=48
4D	4d	4f	8b-
.	.	.	8ff
4D	4d	4f	8b-
.	.	.	8ff
4D	4d	4f	8b-
.	.	.	8ff
=49	=49	=49	=49
4C	4c	4f	8a
.	.	.	8ff
4C	4c	4f	8a
.	.	.	8ff
4C	4c	4f	8a
.	.	.	8ff
=50	=50	=50	=50
4BB-	4B-	4d	8g
.	.	.	8ff
4BB-	4B-	4d	8g
.	.	.	8ff
4BB-	4B-	4d	8g
.	.	.	8ff
=51	=51	=51	=51
4BB-	4B-	4c	8g
.	.	.	8ee-
4BB-	4B-	4c	8g
.	.	.	8ee-
4BB-	4B-	4c	8g
.	.	.	8ee-
=52	=52	=52	=52
4AA	4A	4c	8f
.	.	.	8ee-
4AA	4A	4c	8f
.	.	.	8ee-
4AA	4A	4c	8f
.	.	.	8ee-
=53	=53	=53	=53
4BB-	4B-	4d	8f
.	.	.	8dd
4BB-	4B-	4d	8f
.	.	.	8dd
4BB-	4B-	4d	8f
.	.	.	8dd
=54	=54	=54	=54
4AA	4A	4c	4f
4r	4r	4r	[2b-
4GG	8B-	4e-	.
.	8c	.	.
=55	=55	=55	=55
2.FF	4d	2f	4b-]
.	2c	.	2a
.	.	4e-T	.
=56	=56	=56	=56
2.BB-	2.B-	2.d	2.b- 2.f
==	==	==	==
*-	*-	*-	*-
!!!ENC: Peter van Kranenburg (peter@musical-style-recognition.net)
!!!END: 2006-11-9
